docs/api/thirdparty/assets/diagrams/transfer/1-2-3-rejected-authorization.svg

<?xml version="1.0" encoding="UTF-8" standalone="no"?>
<svg xmlns="http://www.w3.org/2000/svg" xmlns:xlink="http://www.w3.org/1999/xlink" contentScriptType="application/ecmascript" contentStyleType="text/css" height="911px" preserveAspectRatio="none" style="width:1596px;height:911px" version="1.1" viewBox="0 0 1596 911" width="1596px" zoomAndPan="magnify">
  <defs/>
  <g>
    <text fill="#000000" font-family="Verdana" font-size="18" lengthAdjust="spacingAndGlyphs" textLength="339" x="625.25" y="28.708">Transfer: 1.2.3 Rejected Authorization</text>
    <rect fill="#DDDDDD" height="857.0781" style="stroke:#383838;stroke-width:1.0" width="155" x="119" y="40.9531"/>
    <text fill="#000000" font-family="Verdana" font-size="13" font-weight="bold" lengthAdjust="spacingAndGlyphs" textLength="33" x="180" y="53.02">PISP</text>
    <rect fill="#DDDDDD" height="857.0781" style="stroke:#383838;stroke-width:1.0" width="97" x="772" y="40.9531"/>
    <text fill="#000000" font-family="Verdana" font-size="13" font-weight="bold" lengthAdjust="spacingAndGlyphs" textLength="67" x="787" y="53.02">Mojaloop</text>
    <rect fill="#DDDDDD" height="857.0781" style="stroke:#383838;stroke-width:1.0" width="106" x="1111.5" y="40.9531"/>
    <text fill="#000000" font-family="Verdana" font-size="13" font-weight="bold" lengthAdjust="spacingAndGlyphs" textLength="54" x="1137.5" y="53.02">DFSP A</text>
    <line style="stroke:#000000;stroke-width:1.0;stroke-dasharray:5.0,5.0" x1="196" x2="196" y1="121.6484" y2="904.0313"/>
    <line style="stroke:#000000;stroke-width:1.0;stroke-dasharray:5.0,5.0" x1="820" x2="820" y1="121.6484" y2="904.0313"/>
    <line style="stroke:#000000;stroke-width:1.0;stroke-dasharray:5.0,5.0" x1="1164.5" x2="1164.5" y1="121.6484" y2="904.0313"/>
    <rect fill="#F4F4F4" height="37.2813" style="stroke:#383838;stroke-width:1.5" width="147" x="123" y="83.3672"/>
    <text fill="#000000" font-family="Verdana" font-size="20" font-weight="bold" lengthAdjust="spacingAndGlyphs" textLength="133" x="130" y="108.9316">PISP Server</text>
    <rect fill="#F4F4F4" height="37.2813" style="stroke:#383838;stroke-width:1.5" width="89" x="776" y="83.3672"/>
    <text fill="#000000" font-family="Verdana" font-size="20" font-weight="bold" lengthAdjust="spacingAndGlyphs" textLength="75" x="783" y="108.9316">Switch</text>
    <rect fill="#F4F4F4" height="60.5625" style="stroke:#383838;stroke-width:1.5" width="98" x="1115.5" y="60.0859"/>
    <text fill="#000000" font-family="Verdana" font-size="20" font-weight="bold" lengthAdjust="spacingAndGlyphs" textLength="82" x="1123.5" y="85.6504">DFSP A</text>
    <text fill="#000000" font-family="Verdana" font-size="20" font-weight="bold" lengthAdjust="spacingAndGlyphs" textLength="84" x="1122.5" y="108.9316">(Payer)</text>
    <rect fill="#EEEEEE" height="3" style="stroke:#EEEEEE;stroke-width:1.0" width="1589.5" x="0" y="152.2148"/>
    <line style="stroke:#000000;stroke-width:1.0" x1="0" x2="1589.5" y1="152.2148" y2="152.2148"/>
    <line style="stroke:#000000;stroke-width:1.0" x1="0" x2="1589.5" y1="155.2148" y2="155.2148"/>
    <rect fill="#EEEEEE" height="23.1328" style="stroke:#000000;stroke-width:2.0" width="151" x="719.25" y="141.6484"/>
    <text fill="#000000" font-family="Verdana" font-size="13" font-weight="bold" lengthAdjust="spacingAndGlyphs" textLength="132" x="725.25" y="157.7153">Agreement Phase</text>
    <path d="M201,179.7813 L201,264.7813 L535,264.7813 L535,189.7813 L525,179.7813 L201,179.7813 " fill="#ECECEC" style="stroke:#383838;stroke-width:1.0"/>
    <path d="M525,179.7813 L525,189.7813 L535,189.7813 L525,179.7813 " fill="#ECECEC" style="stroke:#383838;stroke-width:1.0"/>
    <text fill="#000000" font-family="Verdana" font-size="13" lengthAdjust="spacingAndGlyphs" textLength="110" x="207" y="196.8481">PISP looks up the</text>
    <text fill="#000000" font-family="monospace" font-size="13" lengthAdjust="spacingAndGlyphs" textLength="160" x="321" y="196.8481">transactionRequestId</text>
    <text fill="#000000" font-family="Verdana" font-size="13" lengthAdjust="spacingAndGlyphs" textLength="24" x="485" y="196.8481">and</text>
    <text fill="#000000" font-family="Verdana" font-size="13" lengthAdjust="spacingAndGlyphs" textLength="200" x="207" y="211.981">checks the quote with the user,</text>
    <text fill="#000000" font-family="Verdana" font-size="13" lengthAdjust="spacingAndGlyphs" textLength="0" x="211" y="227.1138"/>
    <text fill="#000000" font-family="Verdana" font-size="13" lengthAdjust="spacingAndGlyphs" textLength="0" x="211" y="242.2466"/>
    <text fill="#000000" font-family="Verdana" font-size="13" lengthAdjust="spacingAndGlyphs" textLength="313" x="207" y="257.3794">User rejects the terms of the transcationRequest</text>
    <rect fill="#FFFFFF" height="98" style="stroke:#383838;stroke-width:1.0" width="608" x="201" y="275.4453"/>
    <text fill="#000000" font-family="monospace" font-size="13" font-weight="bold" lengthAdjust="spacingAndGlyphs" textLength="600" x="205" y="291.5122">PUT /thirdpartyRequests/authorizations/33333333-0000-0000-0000-000000000000</text>
    <text fill="#000000" font-family="monospace" font-size="13" lengthAdjust="spacingAndGlyphs" textLength="160" x="205" y="306.645">FSPIOP-Source: pispa</text>
    <text fill="#000000" font-family="monospace" font-size="13" lengthAdjust="spacingAndGlyphs" textLength="200" x="205" y="321.7778">FSPIOP-Destination: dfspa</text>
    <text fill="#000000" font-family="Verdana" font-size="13" lengthAdjust="spacingAndGlyphs" textLength="8" x="205" y="336.9106">{</text>
    <text fill="#000000" font-family="Verdana" font-size="13" lengthAdjust="spacingAndGlyphs" textLength="178" x="213" y="352.0435">&quot;responseType&quot;: &quot;REJECTED&quot;</text>
    <text fill="#000000" font-family="Verdana" font-size="13" lengthAdjust="spacingAndGlyphs" textLength="8" x="205" y="367.1763">}</text>
    <polygon fill="#000000" points="808.5,396.375,818.5,400.375,808.5,404.375,812.5,400.375" style="stroke:#000000;stroke-width:1.0"/>
    <line style="stroke:#000000;stroke-width:1.0" x1="196.5" x2="814.5" y1="400.375" y2="400.375"/>
    <text fill="#000000" font-family="monospace" font-size="13" lengthAdjust="spacingAndGlyphs" textLength="600" x="208.5" y="395.3091">PUT /thirdpartyRequests/authorizations/33333333-0000-0000-0000-000000000000</text>
    <polygon fill="#000000" points="207.5,425.5078,197.5,429.5078,207.5,433.5078,203.5,429.5078" style="stroke:#000000;stroke-width:1.0"/>
    <line style="stroke:#000000;stroke-width:1.0;stroke-dasharray:2.0,2.0" x1="201.5" x2="819.5" y1="429.5078" y2="429.5078"/>
    <text fill="#000000" font-family="monospace" font-size="13" lengthAdjust="spacingAndGlyphs" textLength="48" x="484.5" y="424.4419">200 OK</text>
    <polygon fill="#000000" points="1152.5,469.7734,1162.5,473.7734,1152.5,477.7734,1156.5,473.7734" style="stroke:#000000;stroke-width:1.0"/>
    <line style="stroke:#000000;stroke-width:1.0" x1="820.5" x2="1158.5" y1="473.7734" y2="473.7734"/>
    <text fill="#000000" font-family="monospace" font-size="13" lengthAdjust="spacingAndGlyphs" textLength="304" x="840.5" y="453.5747">PUT /thirdpartyRequests/authorizations</text>
    <text fill="#000000" font-family="monospace" font-size="13" lengthAdjust="spacingAndGlyphs" textLength="296" x="844.5" y="468.7075">/33333333-0000-0000-0000-000000000000</text>
    <polygon fill="#000000" points="831.5,498.9063,821.5,502.9063,831.5,506.9063,827.5,502.9063" style="stroke:#000000;stroke-width:1.0"/>
    <line style="stroke:#000000;stroke-width:1.0;stroke-dasharray:2.0,2.0" x1="825.5" x2="1163.5" y1="502.9063" y2="502.9063"/>
    <text fill="#000000" font-family="monospace" font-size="13" lengthAdjust="spacingAndGlyphs" textLength="48" x="968.5" y="497.8403">200 OK</text>
    <line style="stroke:#000000;stroke-width:1.0" x1="1164.5" x2="1206.5" y1="532.0391" y2="532.0391"/>
    <line style="stroke:#000000;stroke-width:1.0" x1="1206.5" x2="1206.5" y1="532.0391" y2="545.0391"/>
    <line style="stroke:#000000;stroke-width:1.0" x1="1165.5" x2="1206.5" y1="545.0391" y2="545.0391"/>
    <polygon fill="#000000" points="1175.5,541.0391,1165.5,545.0391,1175.5,549.0391,1171.5,545.0391" style="stroke:#000000;stroke-width:1.0"/>
    <text fill="#000000" font-family="Verdana" font-size="13" lengthAdjust="spacingAndGlyphs" textLength="75" x="1171.5" y="526.9731">Look up the</text>
    <text fill="#000000" font-family="monospace" font-size="13" lengthAdjust="spacingAndGlyphs" textLength="160" x="1250.5" y="526.9731">transactionRequestId</text>
    <text fill="#000000" font-family="Verdana" font-size="13" lengthAdjust="spacingAndGlyphs" textLength="44" x="1414.5" y="526.9731">for this</text>
    <text fill="#000000" font-family="monospace" font-size="13" lengthAdjust="spacingAndGlyphs" textLength="120" x="1462.5" y="526.9731">authorizationId</text>
    <path d="M1016,558.0391 L1016,583.0391 L1312,583.0391 L1312,568.0391 L1302,558.0391 L1016,558.0391 " fill="#ECECEC" style="stroke:#383838;stroke-width:1.0"/>
    <path d="M1302,558.0391 L1302,568.0391 L1312,568.0391 L1302,558.0391 " fill="#ECECEC" style="stroke:#383838;stroke-width:1.0"/>
    <text fill="#000000" font-family="Verdana" font-size="13" lengthAdjust="spacingAndGlyphs" textLength="271" x="1022" y="575.106">User has rejected the transaction request.</text>
    <rect fill="#FFFFFF" height="113" style="stroke:#383838;stroke-width:1.0" width="608" x="860" y="593.1719"/>
    <text fill="#000000" font-family="monospace" font-size="13" font-weight="bold" lengthAdjust="spacingAndGlyphs" textLength="600" x="864" y="609.2388">PATCH /thirdpartyRequests/transactions/00000000-0000-0000-0000-000000000000</text>
    <text fill="#000000" font-family="monospace" font-size="13" lengthAdjust="spacingAndGlyphs" textLength="160" x="864" y="624.3716">FSPIOP-Source: dfspa</text>
    <text fill="#000000" font-family="monospace" font-size="13" lengthAdjust="spacingAndGlyphs" textLength="200" x="864" y="639.5044">FSPIOP-Destination: pispa</text>
    <text fill="#000000" font-family="Verdana" font-size="13" lengthAdjust="spacingAndGlyphs" textLength="8" x="864" y="654.6372">{</text>
    <text fill="#000000" font-family="Verdana" font-size="13" lengthAdjust="spacingAndGlyphs" textLength="252" x="872" y="669.77">&quot;transactionRequestState&quot;: &quot;REJECTED&quot;,</text>
    <text fill="#000000" font-family="Verdana" font-size="13" lengthAdjust="spacingAndGlyphs" textLength="391" x="872" y="684.9028">&quot;transactionId&quot;: &quot;11111111-0000-0000-0000-000000000000&quot;,</text>
    <text fill="#000000" font-family="Verdana" font-size="13" lengthAdjust="spacingAndGlyphs" textLength="8" x="864" y="700.0356">}</text>
    <polygon fill="#000000" points="831.5,744.3672,821.5,748.3672,831.5,752.3672,827.5,748.3672" style="stroke:#000000;stroke-width:1.0"/>
    <line style="stroke:#000000;stroke-width:1.0" x1="825.5" x2="1163.5" y1="748.3672" y2="748.3672"/>
    <text fill="#000000" font-family="monospace" font-size="13" lengthAdjust="spacingAndGlyphs" textLength="304" x="840.5" y="728.1685">PATCH /thirdpartyRequests/transactions</text>
    <text fill="#000000" font-family="monospace" font-size="13" lengthAdjust="spacingAndGlyphs" textLength="296" x="856.5" y="743.3013">/00000000-0000-0000-0000-000000000000</text>
    <polygon fill="#000000" points="1152.5,773.5,1162.5,777.5,1152.5,781.5,1156.5,777.5" style="stroke:#000000;stroke-width:1.0"/>
    <line style="stroke:#000000;stroke-width:1.0;stroke-dasharray:2.0,2.0" x1="820.5" x2="1158.5" y1="777.5" y2="777.5"/>
    <text fill="#000000" font-family="monospace" font-size="13" lengthAdjust="spacingAndGlyphs" textLength="48" x="968.5" y="772.4341">200 OK</text>
    <polygon fill="#000000" points="207.5,817.7656,197.5,821.7656,207.5,825.7656,203.5,821.7656" style="stroke:#000000;stroke-width:1.0"/>
    <line style="stroke:#000000;stroke-width:1.0" x1="201.5" x2="819.5" y1="821.7656" y2="821.7656"/>
    <text fill="#000000" font-family="monospace" font-size="13" lengthAdjust="spacingAndGlyphs" textLength="304" x="356.5" y="801.5669">PATCH /thirdpartyRequests/transactions</text>
    <text fill="#000000" font-family="monospace" font-size="13" lengthAdjust="spacingAndGlyphs" textLength="296" x="372.5" y="816.6997">/00000000-0000-0000-0000-000000000000</text>
    <polygon fill="#000000" points="808.5,846.8984,818.5,850.8984,808.5,854.8984,812.5,850.8984" style="stroke:#000000;stroke-width:1.0"/>
    <line style="stroke:#000000;stroke-width:1.0;stroke-dasharray:2.0,2.0" x1="196.5" x2="814.5" y1="850.8984" y2="850.8984"/>
    <text fill="#000000" font-family="monospace" font-size="13" lengthAdjust="spacingAndGlyphs" textLength="48" x="484.5" y="845.8325">200 OK</text>
    <path d="M5,863.8984 L5,888.8984 L388,888.8984 L388,873.8984 L378,863.8984 L5,863.8984 " fill="#ECECEC" style="stroke:#383838;stroke-width:1.0"/>
    <path d="M378,863.8984 L378,873.8984 L388,873.8984 L378,863.8984 " fill="#ECECEC" style="stroke:#383838;stroke-width:1.0"/>
    <text fill="#000000" font-family="Verdana" font-size="13" lengthAdjust="spacingAndGlyphs" textLength="362" x="11" y="880.9653">PISP can inform the user the transaction did not proceed</text>
  </g>
</svg>

<svg xmlns="http://www.w3.org/2000/svg" height="911" preserveAspectRatio="none" style="width:1596px;height:911px" width="1596">
  <text font-family="Verdana" font-size="18" lengthAdjust="spacingAndGlyphs" textLength="339" x="625.25" y="28.708">
    Transfer: 1.2.3 Rejected Authorization
  </text>
  <path fill="#DDD" stroke="#383838" d="M119 40.953h155v857.078H119z"/>
  <text font-family="Verdana" font-size="13" font-weight="bold" lengthAdjust="spacingAndGlyphs" textLength="33" x="180" y="53.02">
    PISP
  </text>
  <path fill="#DDD" stroke="#383838" d="M772 40.953h97v857.078h-97z"/>
  <text font-family="Verdana" font-size="13" font-weight="bold" lengthAdjust="spacingAndGlyphs" textLength="67" x="787" y="53.02">
    Mojaloop
  </text>
  <path fill="#DDD" stroke="#383838" d="M1111.5 40.953h106v857.078h-106z"/>
  <text font-family="Verdana" font-size="13" font-weight="bold" lengthAdjust="spacingAndGlyphs" textLength="54" x="1137.5" y="53.02">
    DFSP A
  </text>
  <path stroke="#000" stroke-dasharray="5,5" d="M196 121.648v782.383M820 121.648v782.383M1164.5 121.648v782.383"/>
  <path fill="#F4F4F4" stroke="#383838" stroke-width="1.5" d="M123 83.367h147v37.281H123z"/>
  <text font-family="Verdana" font-size="20" font-weight="bold" lengthAdjust="spacingAndGlyphs" textLength="133" x="130" y="108.932">
    PISP Server
  </text>
  <path fill="#F4F4F4" stroke="#383838" stroke-width="1.5" d="M776 83.367h89v37.281h-89z"/>
  <text font-family="Verdana" font-size="20" font-weight="bold" lengthAdjust="spacingAndGlyphs" textLength="75" x="783" y="108.932">
    Switch
  </text>
  <path fill="#F4F4F4" stroke="#383838" stroke-width="1.5" d="M1115.5 60.086h98v60.563h-98z"/>
  <text font-family="Verdana" font-size="20" font-weight="bold" lengthAdjust="spacingAndGlyphs" textLength="82" x="1123.5" y="85.65">
    DFSP A
  </text>
  <text font-family="Verdana" font-size="20" font-weight="bold" lengthAdjust="spacingAndGlyphs" textLength="84" x="1122.5" y="108.932">
    (Payer)
  </text>
  <path fill="#EEE" stroke="#eee" d="M0 152.215h1589.5v3H0z"/>
  <path stroke="#000" d="M0 152.215h1589.5M0 155.215h1589.5"/>
  <path fill="#EEE" stroke="#000" stroke-width="2" d="M719.25 141.648h151v23.133h-151z"/>
  <text font-family="Verdana" font-size="13" font-weight="bold" lengthAdjust="spacingAndGlyphs" textLength="132" x="725.25" y="157.715">
    Agreement Phase
  </text>
  <path d="M201 179.781v85h334v-75l-10-10H201" fill="#ECECEC" stroke="#383838"/>
  <path d="M525 179.781v10h10l-10-10" fill="#ECECEC" stroke="#383838"/>
  <text font-family="Verdana" font-size="13" lengthAdjust="spacingAndGlyphs" textLength="110" x="207" y="196.848">
    PISP looks up the
  </text>
  <text font-family="monospace" font-size="13" lengthAdjust="spacingAndGlyphs" textLength="160" x="321" y="196.848">
    transactionRequestId
  </text>
  <text font-family="Verdana" font-size="13" lengthAdjust="spacingAndGlyphs" textLength="24" x="485" y="196.848">
    and
  </text>
  <text font-family="Verdana" font-size="13" lengthAdjust="spacingAndGlyphs" textLength="200" x="207" y="211.981">
    checks the quote with the user,
  </text>
  <text font-family="Verdana" font-size="13" lengthAdjust="spacingAndGlyphs" textLength="313" x="207" y="257.379">
    User rejects the terms of the transcationRequest
  </text>
  <path fill="#FFF" stroke="#383838" d="M201 275.445h608v98H201z"/>
  <text font-family="monospace" font-size="13" font-weight="bold" lengthAdjust="spacingAndGlyphs" textLength="600" x="205" y="291.512">
    PUT /thirdpartyRequests/authorizations/33333333-0000-0000-0000-000000000000
  </text>
  <text font-family="monospace" font-size="13" lengthAdjust="spacingAndGlyphs" textLength="160" x="205" y="306.645">
    FSPIOP-Source: pispa
  </text>
  <text font-family="monospace" font-size="13" lengthAdjust="spacingAndGlyphs" textLength="200" x="205" y="321.778">
    FSPIOP-Destination: dfspa
  </text>
  <text font-family="Verdana" font-size="13" lengthAdjust="spacingAndGlyphs" textLength="8" x="205" y="336.911">
    {
  </text>
  <text font-family="Verdana" font-size="13" lengthAdjust="spacingAndGlyphs" textLength="178" x="213" y="352.043">
    &quot;responseType&quot;: &quot;REJECTED&quot;
  </text>
  <text font-family="Verdana" font-size="13" lengthAdjust="spacingAndGlyphs" textLength="8" x="205" y="367.176">
    }
  </text>
  <path stroke="#000" d="M808.5 396.375l10 4-10 4 4-4zM196.5 400.375h618"/>
  <text font-family="monospace" font-size="13" lengthAdjust="spacingAndGlyphs" textLength="600" x="208.5" y="395.309">
    PUT /thirdpartyRequests/authorizations/33333333-0000-0000-0000-000000000000
  </text>
  <path stroke="#000" d="M207.5 425.508l-10 4 10 4-4-4z"/>
  <path stroke="#000" stroke-dasharray="2,2" d="M201.5 429.508h618"/>
  <text font-family="monospace" font-size="13" lengthAdjust="spacingAndGlyphs" textLength="48" x="484.5" y="424.442">
    200 OK
  </text>
  <path stroke="#000" d="M1152.5 469.773l10 4-10 4 4-4zM820.5 473.773h338"/>
  <text font-family="monospace" font-size="13" lengthAdjust="spacingAndGlyphs" textLength="304" x="840.5" y="453.575">
    PUT /thirdpartyRequests/authorizations
  </text>
  <text font-family="monospace" font-size="13" lengthAdjust="spacingAndGlyphs" textLength="296" x="844.5" y="468.707">
    /33333333-0000-0000-0000-000000000000
  </text>
  <path stroke="#000" d="M831.5 498.906l-10 4 10 4-4-4z"/>
  <path stroke="#000" stroke-dasharray="2,2" d="M825.5 502.906h338"/>
  <text font-family="monospace" font-size="13" lengthAdjust="spacingAndGlyphs" textLength="48" x="968.5" y="497.84">
    200 OK
  </text>
  <path stroke="#000" d="M1164.5 532.039h42M1206.5 532.039v13M1165.5 545.039h41M1175.5 541.04l-10 4 10 4-4-4z"/>
  <text font-family="Verdana" font-size="13" lengthAdjust="spacingAndGlyphs" textLength="75" x="1171.5" y="526.973">
    Look up the
  </text>
  <text font-family="monospace" font-size="13" lengthAdjust="spacingAndGlyphs" textLength="160" x="1250.5" y="526.973">
    transactionRequestId
  </text>
  <text font-family="Verdana" font-size="13" lengthAdjust="spacingAndGlyphs" textLength="44" x="1414.5" y="526.973">
    for this
  </text>
  <text font-family="monospace" font-size="13" lengthAdjust="spacingAndGlyphs" textLength="120" x="1462.5" y="526.973">
    authorizationId
  </text>
  <path d="M1016 558.04v25h296v-15l-10-10h-286" fill="#ECECEC" stroke="#383838"/>
  <path d="M1302 558.04v10h10l-10-10" fill="#ECECEC" stroke="#383838"/>
  <text font-family="Verdana" font-size="13" lengthAdjust="spacingAndGlyphs" textLength="271" x="1022" y="575.106">
    User has rejected the transaction request.
  </text>
  <path fill="#FFF" stroke="#383838" d="M860 593.172h608v113H860z"/>
  <text font-family="monospace" font-size="13" font-weight="bold" lengthAdjust="spacingAndGlyphs" textLength="600" x="864" y="609.239">
    PATCH /thirdpartyRequests/transactions/00000000-0000-0000-0000-000000000000
  </text>
  <text font-family="monospace" font-size="13" lengthAdjust="spacingAndGlyphs" textLength="160" x="864" y="624.372">
    FSPIOP-Source: dfspa
  </text>
  <text font-family="monospace" font-size="13" lengthAdjust="spacingAndGlyphs" textLength="200" x="864" y="639.504">
    FSPIOP-Destination: pispa
  </text>
  <text font-family="Verdana" font-size="13" lengthAdjust="spacingAndGlyphs" textLength="8" x="864" y="654.637">
    {
  </text>
  <text font-family="Verdana" font-size="13" lengthAdjust="spacingAndGlyphs" textLength="252" x="872" y="669.77">
    &quot;transactionRequestState&quot;: &quot;REJECTED&quot;,
  </text>
  <text font-family="Verdana" font-size="13" lengthAdjust="spacingAndGlyphs" textLength="391" x="872" y="684.903">
    &quot;transactionId&quot;: &quot;11111111-0000-0000-0000-000000000000&quot;,
  </text>
  <text font-family="Verdana" font-size="13" lengthAdjust="spacingAndGlyphs" textLength="8" x="864" y="700.036">
    }
  </text>
  <path stroke="#000" d="M831.5 744.367l-10 4 10 4-4-4zM825.5 748.367h338"/>
  <text font-family="monospace" font-size="13" lengthAdjust="spacingAndGlyphs" textLength="304" x="840.5" y="728.168">
    PATCH /thirdpartyRequests/transactions
  </text>
  <text font-family="monospace" font-size="13" lengthAdjust="spacingAndGlyphs" textLength="296" x="856.5" y="743.301">
    /00000000-0000-0000-0000-000000000000
  </text>
  <path stroke="#000" d="M1152.5 773.5l10 4-10 4 4-4z"/>
  <path stroke="#000" stroke-dasharray="2,2" d="M820.5 777.5h338"/>
  <text font-family="monospace" font-size="13" lengthAdjust="spacingAndGlyphs" textLength="48" x="968.5" y="772.434">
    200 OK
  </text>
  <path stroke="#000" d="M207.5 817.766l-10 4 10 4-4-4zM201.5 821.766h618"/>
  <text font-family="monospace" font-size="13" lengthAdjust="spacingAndGlyphs" textLength="304" x="356.5" y="801.567">
    PATCH /thirdpartyRequests/transactions
  </text>
  <text font-family="monospace" font-size="13" lengthAdjust="spacingAndGlyphs" textLength="296" x="372.5" y="816.7">
    /00000000-0000-0000-0000-000000000000
  </text>
  <path stroke="#000" d="M808.5 846.898l10 4-10 4 4-4z"/>
  <path stroke="#000" stroke-dasharray="2,2" d="M196.5 850.898h618"/>
  <text font-family="monospace" font-size="13" lengthAdjust="spacingAndGlyphs" textLength="48" x="484.5" y="845.832">
    200 OK
  </text>
  <path d="M5 863.898v25h383v-15l-10-10H5" fill="#ECECEC" stroke="#383838"/>
  <path d="M378 863.898v10h10l-10-10" fill="#ECECEC" stroke="#383838"/>
  <text font-family="Verdana" font-size="13" lengthAdjust="spacingAndGlyphs" textLength="362" x="11" y="880.965">
    PISP can inform the user the transaction did not proceed
  </text>
</svg>
